;FLAVOR:Marlin
;TIME:4170
;Filament used: 1.84813m
;Layer height: 0.2
;MINX:17.43
;MINY:27.6
;MINZ:0.2
;MAXX:49.03
;MAXY:66.2
;MAXZ:73
;Generated with Cura_SteamEngine 4.10.0
M140 S50
M105
M190 S50
M104 S200
M105
M109 S200
M82 ;absolute extrusion mode
; Ender 3 Custom Start G-code
G92 E0 ; Reset Extruder
G28 ; Home all axes
G1 Z2.0 F3000 ; Move Z Axis up little to prevent scratching of Heat Bed
G1 X0.1 Y20 Z0.3 F5000.0 ; Move to start position
G1 X0.1 Y200.0 Z0.3 F1500.0 E15 ; Draw the first line
G1 X0.4 Y200.0 Z0.3 F5000.0 ; Move to side a little
G1 X0.4 Y20 Z0.3 F1500.0 E30 ; Draw the second line
G92 E0 ; Reset Extruder
G1 Z2.0 F3000 ; Move Z Axis up little to prevent scratching of Heat Bed
G1 X5 Y20 Z0.3 F5000.0 ; Move over to prevent blob squish
G92 E0
G92 E0
G1 F2700 E-5
;LAYER_COUNT:365
;LAYER:0
M107
G0 F6000 X23.331 Y30.087 Z0.2
;TYPE:SKIRT
G1 F2700 E0
G1 F1200 X23.801 Y29.743 E0.01937
G1 X24.963 Y28.957 E0.06603
G1 X25.638 Y28.548 E0.09228
G1 X26.352 Y28.21 E0.11856
G1 X26.946 Y27.992 E0.1396
G1 X27.002 Y27.974 E0.14156
G1 X27.765 Y27.771 E0.16782
G1 X28.545 Y27.646 E0.19409
G1 X29.389 Y27.6 E0.22221
G1 X37.071 Y27.6 E0.47771
G1 X37.86 Y27.64 E0.50399
G1 X38.64 Y27.759 E0.53023
G1 X39.458 Y27.974 E0.55836
G1 X39.514 Y27.992 E0.56032
G1 X40.252 Y28.272 E0.58657
G1 X40.959 Y28.624 E0.61284
G1 X41.487 Y28.951 E0.63349
G1 X42.635 Y29.725 E0.67954
G1 X43.163 Y30.113 E0.70134
G1 X43.723 Y30.608 E0.7262
G1 X44.72 Y31.576 E0.77241
G1 X45.258 Y32.154 E0.79868
G1 X45.624 Y32.624 E0.81849
G1 X46.453 Y33.779 E0.86578
G1 X46.88 Y34.443 E0.89203
G1 X47.16 Y34.978 E0.91212
G1 X47.771 Y36.263 E0.95944
G1 X47.924 Y36.604 E0.97187
G1 X48.26 Y37.577 E1.00611
G1 X48.628 Y38.925 E1.05259
G1 X48.797 Y39.696 E1.07884
G1 X48.872 Y40.281 E1.09846
G1 X48.999 Y41.695 E1.14568
G1 X49.03 Y42.393 E1.16891
G1 X49.03 Y58.283 E1.69742
G1 X48.99 Y59.072 E1.72369
G1 X48.871 Y59.852 E1.74994
G1 X48.673 Y60.617 E1.77622
G1 X48.399 Y61.357 E1.80246
G1 X48.051 Y62.066 E1.82873
G1 X47.633 Y62.737 E1.85503
G1 X47.15 Y63.361 E1.88127
G1 X46.745 Y63.798 E1.90109
G1 X46.628 Y63.915 E1.90659
G1 X46.042 Y64.445 E1.93287
G1 X45.406 Y64.912 E1.95912
G1 X44.726 Y65.313 E1.98537
G1 X44.008 Y65.643 E2.01165
G1 X43.261 Y65.898 E2.03791
G1 X42.492 Y66.077 E2.06417
G1 X41.708 Y66.177 E2.09046
G1 X41.113 Y66.2 E2.11026
G1 X25.347 Y66.2 E2.63464
G1 X24.558 Y66.16 E2.66092
G1 X23.778 Y66.041 E2.68716
G1 X23.013 Y65.843 E2.71344
G1 X22.273 Y65.569 E2.73969
G1 X21.564 Y65.221 E2.76596
G1 X20.893 Y64.803 E2.79225
G1 X20.269 Y64.32 E2.81849
G1 X19.832 Y63.915 E2.83831
G1 X19.715 Y63.798 E2.84381
G1 X19.185 Y63.212 E2.87009
G1 X18.718 Y62.576 E2.89634
G1 X18.317 Y61.896 E2.92259
G1 X17.987 Y61.178 E2.94888
G1 X17.732 Y60.431 E2.97513
G1 X17.553 Y59.662 E3.00139
G1 X17.453 Y58.878 E3.02768
G1 X17.43 Y58.283 E3.04748
G1 X17.431 Y42.378 E3.57648
G1 X17.463 Y41.673 E3.59996
G1 X17.59 Y40.274 E3.64668
G1 X17.701 Y39.492 E3.67295
G1 X17.833 Y38.926 E3.69228
G1 X18.201 Y37.577 E3.73879
G1 X18.447 Y36.827 E3.76504
G1 X18.677 Y36.292 E3.78441
G1 X19.286 Y35.006 E3.83173
G1 X19.659 Y34.31 E3.858
G1 X19.989 Y33.808 E3.87798
G1 X20.816 Y32.651 E3.92528
G1 X20.99 Y32.418 E3.93495
G1 X21.738 Y31.578 E3.97236
G1 X22.737 Y30.608 E4.01868
G1 X23.331 Y30.087 E4.04496
G0 F6000 X23.595 Y30.389
G1 F1200 X24.025 Y30.075 E4.06266
G1 X25.187 Y29.289 E4.10932
G1 X25.846 Y28.891 E4.13493
G1 X26.542 Y28.565 E4.16049
G1 X27.069 Y28.373 E4.17915
G1 X27.125 Y28.355 E4.1811
G1 X27.868 Y28.158 E4.20667
G1 X28.628 Y28.039 E4.23226
G1 X29.389 Y28 E4.2576
G1 X37.071 Y28 E4.5131
G1 X37.839 Y28.04 E4.53868
G1 X38.599 Y28.159 E4.56427
G1 X39.335 Y28.355 E4.5896
G1 X39.391 Y28.373 E4.59156
G1 X40.111 Y28.646 E4.61717
G1 X40.797 Y28.992 E4.64272
G1 X41.264 Y29.282 E4.66101
G1 X42.412 Y30.056 E4.70706
G1 X42.913 Y30.426 E4.72777
G1 X43.445 Y30.895 E4.75136
G1 X44.442 Y31.863 E4.79758
G1 X44.965 Y32.427 E4.82316
G1 X45.299 Y32.857 E4.84127
G1 X46.128 Y34.012 E4.88856
G1 X46.543 Y34.659 E4.91412
G1 X46.799 Y35.149 E4.93251
G1 X47.41 Y36.434 E4.97984
G1 X47.555 Y36.759 E4.99167
G1 X47.874 Y37.682 E5.02415
G1 X48.242 Y39.03 E5.07063
G1 X48.405 Y39.782 E5.09622
G1 X48.473 Y40.317 E5.11416
G1 X48.6 Y41.731 E5.16138
G1 X48.63 Y42.393 E5.18342
G1 X48.63 Y58.283 E5.71192
G1 X48.59 Y59.051 E5.7375
G1 X48.471 Y59.811 E5.76309
G1 X48.273 Y60.554 E5.78866
G1 X47.999 Y61.273 E5.81425
G1 X47.652 Y61.959 E5.83982
G1 X47.236 Y62.606 E5.86541
G1 X46.755 Y63.206 E5.89098
G1 X46.463 Y63.516 E5.90515
G1 X46.346 Y63.633 E5.91065
G1 X45.774 Y64.147 E5.93623
G1 X45.152 Y64.6 E5.96182
G1 X44.487 Y64.986 E5.98739
G1 X43.785 Y65.301 E6.01299
G1 X43.054 Y65.541 E6.03858
G1 X42.303 Y65.704 E6.06414
G1 X41.538 Y65.788 E6.08973
G1 X41.113 Y65.8 E6.10387
G1 X25.347 Y65.8 E6.62825
G1 X24.579 Y65.76 E6.65383
G1 X23.819 Y65.641 E6.67942
G1 X23.076 Y65.443 E6.70499
G1 X22.357 Y65.169 E6.73058
G1 X21.671 Y64.822 E6.75615
G1 X21.024 Y64.406 E6.78174
G1 X20.424 Y63.925 E6.80731
G1 X20.114 Y63.633 E6.82148
G1 X19.997 Y63.516 E6.82698
G1 X19.483 Y62.944 E6.85256
G1 X19.03 Y62.322 E6.87815
G1 X18.644 Y61.657 E6.90373
G1 X18.329 Y60.955 E6.92932
G1 X18.089 Y60.224 E6.95491
G1 X17.926 Y59.473 E6.98047
G1 X17.842 Y58.708 E7.00606
G1 X17.83 Y58.283 E7.02021
G1 X17.831 Y42.378 E7.54921
G1 X17.861 Y41.709 E7.57148
G1 X17.988 Y40.31 E7.6182
G1 X18.098 Y39.549 E7.64378
G1 X18.219 Y39.031 E7.66147
G1 X18.587 Y37.682 E7.70798
G1 X18.828 Y36.952 E7.73355
G1 X19.038 Y36.463 E7.75125
G1 X19.647 Y35.177 E7.79857
G1 X20.012 Y34.5 E7.82415
G1 X20.315 Y34.041 E7.84245
G1 X21.142 Y32.884 E7.88975
G1 X21.307 Y32.662 E7.89895
G1 X22.017 Y31.865 E7.93445
G1 X23.016 Y30.895 E7.98076
G1 X23.595 Y30.389 E8.00634
G0 F6000 X23.858 Y30.69
G1 F1200 X24.249 Y30.406 E8.02241
G1 X25.411 Y29.62 E8.06907
G1 X26.052 Y29.234 E8.09396
G1 X26.731 Y28.92 E8.11884
G1 X27.191 Y28.754 E8.1351
G1 X27.247 Y28.736 E8.13706
G1 X27.97 Y28.545 E8.16193
G1 X28.71 Y28.433 E8.18683
G1 X29.389 Y28.4 E8.20944
G1 X37.071 Y28.4 E8.46494
G1 X37.818 Y28.44 E8.48982
G1 X38.556 Y28.559 E8.51468
G1 X39.213 Y28.736 E8.53732
G1 X39.269 Y28.754 E8.53927
G1 X39.968 Y29.02 E8.56415
G1 X40.634 Y29.36 E8.58902
G1 X41.04 Y29.614 E8.60495
G1 X42.188 Y30.388 E8.651
G1 X42.663 Y30.738 E8.67062
G1 X43.166 Y31.182 E8.69294
G1 X44.163 Y32.15 E8.73916
G1 X44.671 Y32.699 E8.76403
G1 X44.974 Y33.09 E8.78049
G1 X45.803 Y34.245 E8.82777
G1 X46.206 Y34.875 E8.85265
G1 X46.438 Y35.321 E8.86937
G1 X47.049 Y36.606 E8.91669
G1 X47.186 Y36.915 E8.92793
G1 X47.488 Y37.787 E8.95863
G1 X47.856 Y39.135 E9.0051
G1 X48.014 Y39.867 E9.03001
G1 X48.075 Y40.353 E9.0463
G1 X48.202 Y41.767 E9.09352
G1 X48.23 Y42.393 E9.11436
G1 X48.23 Y58.283 E9.64286
G1 X48.19 Y59.03 E9.66775
G1 X48.071 Y59.768 E9.69261
G1 X47.873 Y60.49 E9.71751
G1 X47.6 Y61.186 E9.74238
G1 X47.253 Y61.849 E9.76726
G1 X46.838 Y62.472 E9.79216
G1 X46.18 Y63.233 E9.82562
G1 X46.063 Y63.35 E9.83113
G1 X45.506 Y63.85 E9.85602
G1 X44.9 Y64.287 E9.88087
G1 X44.25 Y64.658 E9.90576
G1 X43.564 Y64.957 E9.93065
G1 X42.85 Y65.181 E9.95554
G1 X42.117 Y65.328 E9.98041
G1 X41.113 Y65.4 E10.01389
G1 X25.347 Y65.4 E10.53827
G1 X24.6 Y65.36 E10.56315
G1 X23.862 Y65.241 E10.58801
G1 X23.14 Y65.043 E10.61291
G1 X22.444 Y64.77 E10.63778
G1 X21.781 Y64.423 E10.66267
G1 X21.158 Y64.008 E10.68756
G1 X20.397 Y63.35 E10.72102
G1 X20.28 Y63.233 E10.72653
G1 X19.78 Y62.676 E10.75142
G1 X19.343 Y62.07 E10.77627
G1 X18.972 Y61.42 E10.80116
G1 X18.673 Y60.734 E10.82605
G1 X18.449 Y60.02 E10.85094
G1 X18.302 Y59.287 E10.87581
G1 X18.23 Y58.283 E10.90929
G1 X18.231 Y42.378 E11.43829
G1 X18.26 Y41.745 E11.45936
G1 X18.387 Y40.346 E11.50609
G1 X18.494 Y39.606 E11.53096
G1 X18.605 Y39.137 E11.54699
G1 X18.973 Y37.788 E11.59349
G1 X19.208 Y37.078 E11.61837
G1 X19.4 Y36.634 E11.63446
G1 X20.009 Y35.348 E11.68178
G1 X20.364 Y34.69 E11.70665
G1 X20.64 Y34.273 E11.72328
G1 X21.467 Y33.116 E11.77058
G1 X21.624 Y32.906 E11.7793
G1 X22.296 Y32.152 E11.8129
G1 X23.295 Y31.182 E11.85921
G1 X23.858 Y30.69 E11.88408
G0 F6000 X24.122 Y30.992
G1 F1200 X24.473 Y30.737 E11.89851
G1 X25.635 Y29.951 E11.94517
G1 X26.258 Y29.578 E11.96932
G1 X26.919 Y29.275 E11.9935
G1 X27.313 Y29.135 E12.00741
G1 X27.369 Y29.117 E12.00937
G1 X28.072 Y28.933 E12.03354
G1 X28.791 Y28.827 E12.05771
G1 X29.389 Y28.8 E12.07762
G1 X37.071 Y28.8 E12.33312
G1 X37.796 Y28.84 E12.35727
G1 X38.513 Y28.959 E12.38145
G1 X39.091 Y29.117 E12.40138
G1 X39.147 Y29.135 E12.40333
G1 X39.825 Y29.395 E12.42749
G1 X40.47 Y29.728 E12.45163
G1 X40.817 Y29.946 E12.46526
G1 X41.965 Y30.72 E12.51131
G1 X42.413 Y31.05 E12.52982
G1 X42.888 Y31.469 E12.55088
G1 X43.885 Y32.437 E12.5971
G1 X44.377 Y32.971 E12.62125
G1 X44.649 Y33.324 E12.63607
G1 X45.478 Y34.479 E12.68336
G1 X45.868 Y35.091 E12.7075
G1 X46.077 Y35.493 E12.72257
G1 X46.688 Y36.778 E12.76989
G1 X46.818 Y37.07 E12.78052
G1 X47.102 Y37.893 E12.80948
G1 X47.47 Y39.241 E12.85595
G1 X47.622 Y39.951 E12.8801
G1 X47.677 Y40.389 E12.89479
G1 X47.804 Y41.803 E12.942
G1 X47.83 Y42.393 E12.96165
G1 X47.83 Y58.283 E13.49015
G1 X47.79 Y59.008 E13.5143
G1 X47.671 Y59.725 E13.53848
G1 X47.473 Y60.424 E13.56264
G1 X47.2 Y61.097 E13.58679
G1 X46.855 Y61.736 E13.61095
G1 X46.441 Y62.333 E13.63511
G1 X45.897 Y62.95 E13.66247
G1 X45.78 Y63.067 E13.66797
G1 X45.239 Y63.551 E13.69212
G1 X44.648 Y63.974 E13.71629
G1 X44.014 Y64.328 E13.74044
G1 X43.345 Y64.611 E13.7646
G1 X42.649 Y64.819 E13.78876
G1 X41.934 Y64.949 E13.81293
G1 X41.113 Y65 E13.84029
G1 X25.347 Y65 E14.36467
G1 X24.622 Y64.96 E14.38882
G1 X23.905 Y64.841 E14.41299
G1 X23.206 Y64.643 E14.43716
G1 X22.533 Y64.37 E14.46131
G1 X21.894 Y64.025 E14.48547
G1 X21.297 Y63.611 E14.50963
G1 X20.68 Y63.067 E14.53699
G1 X20.563 Y62.95 E14.54249
G1 X20.079 Y62.409 E14.56664
G1 X19.656 Y61.818 E14.59081
G1 X19.302 Y61.184 E14.61496
G1 X19.019 Y60.515 E14.63912
G1 X18.811 Y59.819 E14.66328
G1 X18.681 Y59.104 E14.68745
G1 X18.63 Y58.283 E14.71481
G1 X18.631 Y42.378 E15.24381
G1 X18.658 Y41.781 E15.26369
G1 X18.785 Y40.382 E15.31041
G1 X18.89 Y39.664 E15.33455
G1 X18.991 Y39.242 E15.34898
G1 X19.359 Y37.893 E15.39549
G1 X19.588 Y37.204 E15.41964
G1 X19.761 Y36.805 E15.4341
G1 X20.37 Y35.519 E15.48143
G1 X20.717 Y34.881 E15.50558
G1 X20.966 Y34.506 E15.52055
G1 X21.793 Y33.349 E15.56786
G1 X21.941 Y33.15 E15.5761
G1 X22.574 Y32.439 E15.60777
G1 X23.573 Y31.469 E15.65408
G1 X24.122 Y30.992 E15.67827
G0 F6000 X24.384 Y31.295
G1 F1200 X24.697 Y31.069 E15.69111
G1 X25.859 Y30.283 E15.73777
G1 X26.464 Y29.922 E15.7612
G1 X27.436 Y29.515 E15.79625
G1 X27.492 Y29.497 E15.79821
G1 X28.173 Y29.32 E15.82161
G1 X28.87 Y29.222 E15.84502
G1 X29.389 Y29.2 E15.8623
G1 X37.071 Y29.2 E16.1178
G1 X37.774 Y29.24 E16.14122
G1 X38.468 Y29.359 E16.16464
G1 X38.968 Y29.497 E16.18189
G1 X39.024 Y29.515 E16.18385
G1 X39.681 Y29.769 E16.20728
G1 X40.593 Y30.277 E16.242
G1 X41.741 Y31.051 E16.28805
G1 X42.163 Y31.363 E16.3055
G1 X42.609 Y31.756 E16.32527
G1 X43.606 Y32.724 E16.37149
G1 X44.082 Y33.242 E16.39489
G1 X44.324 Y33.557 E16.4081
G1 X45.153 Y34.712 E16.45539
G1 X45.53 Y35.306 E16.47879
G1 X45.715 Y35.665 E16.49222
G1 X46.326 Y36.95 E16.53955
G1 X46.449 Y37.225 E16.54957
G1 X46.716 Y37.998 E16.57677
G1 X47.084 Y39.346 E16.62324
G1 X47.231 Y40.035 E16.64667
G1 X47.278 Y40.424 E16.65971
G1 X47.405 Y41.838 E16.70693
G1 X47.43 Y42.393 E16.7254
G1 X47.43 Y58.283 E17.25391
G1 X47.39 Y58.986 E17.27733
G1 X47.271 Y59.68 E17.30075
G1 X47.073 Y60.355 E17.32414
G1 X46.801 Y61.004 E17.34755
G1 X46.456 Y61.618 E17.37097
G1 X46.045 Y62.189 E17.39437
G1 X45.614 Y62.667 E17.41578
G1 X45.497 Y62.784 E17.42128
G1 X44.972 Y63.253 E17.4447
G1 X44.397 Y63.659 E17.46811
G1 X43.779 Y63.997 E17.49154
G1 X43.128 Y64.264 E17.51494
G1 X42.45 Y64.454 E17.53836
G1 X41.755 Y64.567 E17.56178
G1 X41.113 Y64.6 E17.58316
G1 X25.347 Y64.6 E18.10754
G1 X24.644 Y64.56 E18.13096
G1 X23.95 Y64.441 E18.15438
G1 X23.275 Y64.243 E18.17777
G1 X22.626 Y63.971 E18.20118
G1 X22.012 Y63.626 E18.2246
G1 X21.441 Y63.215 E18.248
G1 X20.963 Y62.784 E18.26941
G1 X20.846 Y62.667 E18.27491
G1 X20.377 Y62.142 E18.29833
G1 X19.971 Y61.567 E18.32174
G1 X19.633 Y60.949 E18.34517
G1 X19.366 Y60.298 E18.36857
G1 X19.176 Y59.62 E18.39199
G1 X19.063 Y58.925 E18.41541
G1 X19.03 Y58.283 E18.43679
G1 X19.031 Y42.378 E18.96579
G1 X19.056 Y41.817 E18.98447
G1 X19.183 Y40.418 E19.03119
G1 X19.287 Y39.722 E19.0546
G1 X19.377 Y39.347 E19.06743
G1 X19.745 Y37.998 E19.11393
G1 X19.968 Y37.331 E19.13732
G1 X20.123 Y36.976 E19.15021
G1 X20.732 Y35.69 E19.19753
G1 X21.068 Y35.072 E19.22093
G1 X21.291 Y34.739 E19.23426
G1 X22.118 Y33.582 E19.28156
G1 X22.258 Y33.394 E19.28936
G1 X22.853 Y32.726 E19.31911
G1 X23.852 Y31.756 E19.36542
G1 X24.384 Y31.295 E19.38884
G0 F6000 X24.921 Y31.4
G1 F1200 X26.083 Y30.614 E19.4355
G1 X26.669 Y30.266 E19.45817
G1 X27.558 Y29.896 E19.49019
G1 X27.614 Y29.878 E19.49215
G1 X28.273 Y29.708 E19.51478
G1 X28.948 Y29.617 E19.53744
G1 X29.389 Y29.6 E19.55212
G1 X37.071 Y29.6 E19.80762
G1 X37.751 Y29.64 E19.83028
G1 X38.421 Y29.759 E19.85291
G1 X38.846 Y29.878 E19.86759
G1 X38.902 Y29.896 E19.86955
G1 X39.537 Y30.142 E19.8922
G1 X40.369 Y30.609 E19.92393
G1 X41.517 Y31.383 E19.96998
G1 X41.913 Y31.675 E19.98634
G1 X42.33 Y32.043 E20.00484
G1 X43.327 Y33.011 E20.05106
G1 X43.787 Y33.513 E20.07371
G1 X43.999 Y33.79 E20.08531
G1 X44.828 Y34.945 E20.1326
G1 X45.192 Y35.521 E20.15526
G1 X45.354 Y35.836 E20.16704
G1 X45.965 Y37.121 E20.21436
G1 X46.08 Y37.38 E20.22379
G1 X46.33 Y38.104 E20.24926
G1 X46.698 Y39.452 E20.29574
G1 X46.839 Y40.118 E20.31838
G1 X46.88 Y40.46 E20.32984
G1 X47.007 Y41.874 E20.37706
G1 X47.03 Y42.393 E20.39434
G1 X47.03 Y58.283 E20.92284
G1 X46.99 Y58.963 E20.9455
G1 X46.871 Y59.633 E20.96813
G1 X46.674 Y60.285 E20.99078
G1 X46.402 Y60.909 E21.01342
G1 X46.058 Y61.497 E21.03608
G1 X45.648 Y62.041 E21.05874
G1 X45.331 Y62.384 E21.07427
G1 X45.214 Y62.501 E21.07978
G1 X44.705 Y62.954 E21.10244
G1 X44.147 Y63.343 E21.12506
G1 X43.547 Y63.665 E21.14771
G1 X42.913 Y63.914 E21.17037
G1 X42.254 Y64.087 E21.19303
G1 X41.58 Y64.181 E21.21566
G1 X41.113 Y64.2 E21.23121
G1 X25.347 Y64.2 E21.75559
G1 X24.667 Y64.16 E21.77824
G1 X23.997 Y64.041 E21.80088
G1 X23.345 Y63.844 E21.82353
G1 X22.721 Y63.572 E21.84617
G1 X22.133 Y63.228 E21.86883
G1 X21.589 Y62.818 E21.89148
G1 X21.246 Y62.501 E21.90702
G1 X21.129 Y62.384 E21.91252
G1 X20.676 Y61.875 E21.93519
G1 X20.287 Y61.317 E21.95781
G1 X19.965 Y60.717 E21.98046
G1 X19.716 Y60.083 E22.00311
G1 X19.543 Y59.424 E22.02577
G1 X19.449 Y58.75 E22.04841
G1 X19.43 Y58.283 E22.06395
G1 X19.431 Y42.378 E22.59296
G1 X19.455 Y41.854 E22.6104
G1 X19.582 Y40.455 E22.65712
G1 X19.762 Y39.453 E22.69098
G1 X20.13 Y38.104 E22.73749
G1 X20.484 Y37.148 E22.7714
G1 X21.093 Y35.862 E22.81872
G1 X21.42 Y35.264 E22.84139
G1 X21.616 Y34.971 E22.85312
G1 X22.443 Y33.814 E22.90042
G1 X22.575 Y33.638 E22.90774
G1 X23.132 Y33.013 E22.93558
G1 X24.131 Y32.043 E22.98189
G1 X24.921 Y31.4 E23.01577
G0 F6000 X25.145 Y31.731
G1 F1200 X26.307 Y30.945 E23.06243
G1 X26.873 Y30.611 E23.08429
G1 X27.681 Y30.277 E23.11337
G1 X27.737 Y30.259 E23.11533
G1 X28.373 Y30.096 E23.13716
G1 X29.025 Y30.012 E23.15903
G1 X29.389 Y30 E23.17114
G1 X37.071 Y30 E23.42665
G1 X37.727 Y30.04 E23.44851
G1 X38.373 Y30.159 E23.47035
G1 X38.723 Y30.259 E23.48246
G1 X38.779 Y30.277 E23.48442
G1 X39.392 Y30.516 E23.5063
G1 X40.146 Y30.941 E23.53509
G1 X41.294 Y31.715 E23.58114
G1 X41.663 Y31.987 E23.59639
G1 X42.052 Y32.33 E23.61364
G1 X43.049 Y33.298 E23.65985
G1 X43.674 Y34.023 E23.69169
